X:1
T:Is It There?
T:William Howard Doane
T:Is It There?
T:Public Domain
T:Public Domain
C:William Howard Doane
Z:Public Domain
%%score ( 1 2 ) 3
L:1/8
M:4/4
K:F
V:1 treble 
V:2 treble 
V:3 bass 
V:1
 [FA]2 [FA]2 [FB]2 [FA][FA] | [FA]2 [EG]2 [Ec]4 | [Fc]2 [FA]>[EG] F2 [FA]2 | [EG]8 | %4
w: 1.~Is my hope on the|rift- ed Rock,|Cleft by the Lord for|Is|
w: 2.~Do I walk with a|stead- fast eye|Fixed on the heav- enly|Is|
w: 3.~Can I say, with a|trust- ing heart,|Je- sus, Thy will, not|Is|
w: 4.~When in death I shall|calm- ly sleep,|Je- sus, to wake with|There|
 [FA]2 [GA]2 [FA]2 [FA][FA] | [FB]2 [Fc]2 [Fd]4 | [Fc]2 [FA]>[CG] [CF]2 [CG]2 | [CF]8 || %8
w: my name in the book|of life? O|that my faith could see!||
w: my name in the book|of life Graved|by a Sav- ior’s hand?||
w: my name in the book|of life, Sealed|by His blood di- vine?||
w: my name in the book|of life Grant|that my eye may see.||
"^Refrain" [EG]3 [FA] [GB]4 | [GB]3 [FA] [FA]4 | [FA]2 [Fc][Ec] [Fc]2 [FA]2 | [EG]8 | %12
w: ||||
w: ||||
w: ||||
w: ||||
 [EG]3 [FA] [GB]4 | [GB]3 [FA] [Fd]4 | [Fc]2 [FA]>[CG] [CF]2 [CG]2 | [CF]8 |] %16
w: ||||
w: ||||
w: ||||
w: ||||
V:2
 x8 | x8 | x4 F2 x2 | x8 | x8 | x8 | x8 | x8 || x8 | x8 | x8 | x8 | x8 | x8 | x8 | x8 |] %16
w: ||me?||||||||||||||
w: ||land?||||||||||||||
w: ||mine?||||||||||||||
w: ||Thee,||||||||||||||
V:3
 [F,C]2 [F,C]2 [F,D]2 [F,C][F,C] | [C,C]2 [C,C]2 [C,B,]4 | [F,A,]2 [F,C]>[G,C] [A,C]2 [F,C]2 | %3
w: ~ ~ ~ ~ ~|~ ~ ~|~ ~ ~ ~ ~|
 [C,C]8 | [F,C]2 [E,^C]2 [D,D]2 [^C,_E][C,E] | [B,,D]2 [F,A,]2 [B,,B,]4 | %6
w: ~|~ ~ ~ ~ ~|~ ~ ~|
 [C,A,]2 [C,C]>[C,B,] [C,A,]2 [C,B,]2 | [F,A,]8 || [C,C]3 [C,C] [C,C]4 | [F,C]3 [F,C] [F,C]4 | %10
w: ~ ~ ~ ~ ~|~|Is it there,|is it there,|
 [F,C]2 [F,A,][G,B,] [A,C]2 [F,C]2 | [C,C]8 | [C,C]3 [C,C] [C,C]4 | [F,C]3 [F,C] [B,,B,]4 | %14
w: Bright on the page so|fair?|Is it there,|is it there,|
 [C,A,]2 [C,C]>[C,B,] [C,A,]2 [C,B,]2 | [F,A,]8 |] %16
w: Safe in my Fa- ther’s|care?|

